Packages/3ds Max 2027/ColorManagement/ocio_configs/glTF_PBR_Neutral_Tone_Mapper/gltf_neutral_tonemap.cube
TITLE "glTF Neutral Tone Mapper"
LUT_3D_SIZE 32
DOMAIN_MIN 0.0 0.0 0.0
DOMAIN_MAX 1.0 1.0 1.0
0.000000 0.000000 0.000000
0.031250 0.000000 0.000000
0.060606 0.000000 0.000000
0.088235 0.000000 0.000000
0.114286 0.000000 0.000000
0.138889 0.000000 0.000000
0.162162 0.000000 0.000000
0.184211 0.000000 0.000000
0.205128 0.000000 0.000000
0.225000 0.000000 0.000000
0.243902 0.000000 0.000000
0.261905 0.000000 0.000000
0.279070 0.000000 0.000000
0.295455 0.000000 0.000000
0.311111 0.000000 0.000000
0.326087 0.000000 0.000000
0.340426 0.000000 0.000000
0.354167 0.000000 0.000000
0.367347 0.000000 0.000000
0.380000 0.000000 0.000000
0.392157 0.000000 0.000000
0.403846 0.000000 0.000000
0.415094 0.000000 0.000000
0.425926 0.000000 0.000000
0.436364 0.000000 0.000000
0.446429 0.000000 0.000000
0.456140 0.000000 0.000000
0.465517 0.000000 0.000000
0.474576 0.000000 0.000000
0.483333 0.000000 0.000000
0.491803 0.000000 0.000000
0.500000 0.000000 0.000000
0.000000 0.031250 0.000000
0.031250 0.031250 0.000000
0.060606 0.031250 0.000000
0.088235 0.031250 0.000000
0.114286 0.031250 0.000000
0.138889 0.031250 0.000000
0.162162 0.031250 0.000000
0.184211 0.031250 0.000000
0.205128 0.031250 0.000000
0.225000 0.031250 0.000000
0.243902 0.031250 0.000000
0.261905 0.031250 0.000000
0.279070 0.031250 0.000000
0.295455 0.031250 0.000000
0.311111 0.031250 0.000000
0.326087 0.031250 0.000000
0.340426 0.031250 0.000000
0.354167 0.031250 0.000000
0.367347 0.031250 0.000000
0.380000 0.031250 0.000000
0.392157 0.031250 0.000000
0.403846 0.031250 0.000000
0.415094 0.031250 0.000000
0.425926 0.031250 0.000000
0.436364 0.031250 0.000000
0.446429 0.031250 0.000000
0.456140 0.031250 0.000000
0.465517 0.031250 0.000000
0.474576 0.031250 0.000000
0.483333 0.031250 0.000000
0.491803 0.031250 0.000000
0.500000 0.031250 0.000000
0.000000 0.060606 0.000000
0.031250 0.060606 0.000000
0.060606 0.060606 0.000000
0.088235 0.060606 0.000000
0.114286 0.060606 0.000000
0.138889 0.060606 0.000000
0.162162 0.060606 0.000000
0.184211 0.060606 0.000000
0.205128 0.060606 0.000000
0.225000 0.060606 0.000000
0.243902 0.060606 0.000000
0.261905 0.060606 0.000000
0.279070 0.060606 0.000000
0.295455 0.060606 0.000000
0.311111 0.060606 0.000000
0.326087 0.060606 0.000000
0.340426 0.060606 0.000000
0.354167 0.060606 0.000000
0.367347 0.060606 0.000000
0.380000 0.060606 0.000000
0.392157 0.060606 0.000000
0.403846 0.060606 0.000000
0.415094 0.060606 0.000000
0.425926 0.060606 0.000000
0.436364 0.060606 0.000000
0.446429 0.060606 0.000000
0.456140 0.060606 0.000000
0.465517 0.060606 0.000000
0.474576 0.060606 0.000000
0.483333 0.060606 0.000000
0.491803 0.060606 0.000000
0.500000 0.060606 0.000000
0.000000 0.088235 0.000000
0.031250 0.088235 0.000000
0.060606 0.088235 0.000000
0.088235 0.088235 0.000000
0.114286 0.088235 0.000000
0.138889 0.088235 0.000000
0.162162 0.088235 0.000000
0.184211 0.088235 0.000000
0.205128 0.088235 0.000000
0.225000 0.088235 0.000000
0.243902 0.088235 0.000000
0.261905 0.088235 0.000000
0.279070 0.088235 0.000000
0.295455 0.088235 0.000000
0.311111 0.088235 0.000000
0.326087 0.088235 0.000000
0.340426 0.088235 0.000000
0.354167 0.088235 0.000000
0.367347 0.088235 0.000000
0.380000 0.088235 0.000000
0.392157 0.088235 0.000000
0.403846 0.088235 0.000000
0.415094 0.088235 0.000000
0.425926 0.088235 0.000000
0.436364 0.088235 0.000000
0.446429 0.088235 0.000000
0.456140 0.088235 0.000000
0.465517 0.088235 0.000000
0.474576 0.088235 0.000000
0.483333 0.088235 0.000000
0.491803 0.088235 0.000000
0.500000 0.088235 0.000000
0.000000 0.114286 0.000000
0.031250 0.114286 0.000000
0.060606 0.114286 0.000000
0.088235 0.114286 0.000000
0.114286 0.114286 0.000000
0.138889 0.114286 0.000000
0.162162 0.114286 0.000000
0.184211 0.114286 0.000000
0.205128 0.114286 0.000000
0.225000 0.114286 0.000000
0.243902 0.114286 0.000000
0.261905 0.114286 0.000000
0.279070 0.114286 0.000000
0.295455 0.114286 0.000000
0.311111 0.114286 0.000000
0.326087 0.114286 0.000000
0.340426 0.114286 0.000000
0.354167 0.114286 0.000000
0.367347 0.114286 0.000000
0.380000 0.114286 0.000000
0.392157 0.114286 0.000000
0.403846 0.114286 0.000000
0.415094 0.114286 0.000000
0.425926 0.114286 0.000000
0.436364 0.114286 0.000000
0.446429 0.114286 0.000000
0.456140 0.114286 0.000000
0.465517 0.114286 0.000000
0.474576 0.114286 0.000000
0.483333 0.114286 0.000000
0.491803 0.114286 0.000000
0.500000 0.114286 0.000000
0.000000 0.138889 0.000000
0.031250 0.138889 0.000000
0.060606 0.138889 0.000000
0.088235 0.138889 0.000000
0.114286 0.138889 0.000000
0.138889 0.138889 0.000000
0.162162 0.138889 0.000000
0.184211 0.138889 0.000000
0.205128 0.138889 0.000000
0.225000 0.138889 0.000000
0.243902 0.138889 0.000000
0.261905 0.138889 0.000000
0.279070 0.138889 0.000000
0.295455 0.138889 0.000000
0.311111 0.138889 0.000000
0.326087 0.138889 0.000000
0.340426 0.138889 0.000000
0.354167 0.138889 0.000000
0.367347 0.138889 0.000000
0.380000 0.138889 0.000000
0.392157 0.138889 0.000000
0.403846 0.138889 0.000000
0.415094 0.138889 0.000000
0.425926 0.138889 0.000000
0.436364 0.138889 0.000000
0.446429 0.138889 0.000000
0.456140 0.138889 0.000000
0.465517 0.138889 0.000000
0.474576 0.138889 0.000000
0.483333 0.138889 0.000000
0.491803 0.138889 0.000000
0.500000 0.138889 0.000000
0.000000 0.162162 0.000000
0.031250 0.162162 0.000000
0.060606 0.162162 0.000000
0.088235 0.162162 0.000000
0.114286 0.162162 0.000000
0.138889 0.162162 0.000000
0.162162 0.162162 0.000000
0.184211 0.162162 0.000000
0.205128 0.162162 0.000000
0.225000 0.162162 0.000000
0.243902 0.162162 0.000000
0.261905 0.162162 0.000000
0.279070 0.162162 0.000000
0.295455 0.162162 0.000000
0.311111 0.162162 0.000000
0.326087 0.162162 0.000000
0.340426 0.162162 0.000000
0.354167 0.162162 0.000000
0.367347 0.162162 0.000000
0.380000 0.162162 0.000000
0.392157 0.162162 0.000000
0.403846 0.162162 0.000000
0.415094 0.162162 0.000000
0.425926 0.162162 0.000000
0.436364 0.162162 0.000000
0.446429 0.162162 0.000000
0.456140 0.162162 0.000000
0.465517 0.162162 0.000000
0.474576 0.162162 0.000000
0.483333 0.162162 0.000000
0.491803 0.162162 0.000000
0.500000 0.162162 0.000000
0.000000 0.184211 0.000000
0.031250 0.184211 0.000000
0.060606 0.184211 0.000000
0.088235 0.184211 0.000000
0.114286 0.184211 0.000000
0.138889 0.184211 0.000000
0.162162 0.184211 0.000000
0.184211 0.184211 0.000000
0.205128 0.184211 0.000000
0.225000 0.184211 0.000000
0.243902 0.184211 0.000000
0.261905 0.184211 0.000000
0.279070 0.184211 0.000000
0.295455 0.184211 0.000000
0.311111 0.184211 0.000000
0.326087 0.184211 0.000000
0.340426 0.184211 0.000000
0.354167 0.184211 0.000000
0.367347 0.184211 0.000000
0.380000 0.184211 0.000000
0.392157 0.184211 0.000000
0.403846 0.184211 0.000000
0.415094 0.184211 0.000000
0.425926 0.184211 0.000000
0.436364 0.184211 0.000000
0.446429 0.184211 0.000000
0.456140 0.184211 0.000000
0.465517 0.184211 0.000000
0.474576 0.184211 0.000000
0.483333 0.184211 0.000000
0.491803 0.184211 0.000000
0.500000 0.184211 0.000000
0.000000 0.205128 0.000000
0.031250 0.205128 0.000000
0.060606 0.205128 0.000000
0.088235 0.205128 0.000000
0.114286 0.205128 0.000000
0.138889 0.205128 0.000000
0.162162 0.205128 0.000000
0.184211 0.205128 0.000000
0.205128 0.205128 0.000000
0.225000 0.205128 0.000000
0.243902 0.205128 0.000000
0.261905 0.205128 0.000000
0.279070 0.205128 0.000000
0.295455 0.205128 0.000000
0.311111 0.205128 0.000000
0.326087 0.205128 0.000000
0.340426 0.205128 0.000000
0.354167 0.205128 0.000000
0.367347 0.205128 0.000000
0.380000 0.205128 0.000000
0.392157 0.205128 0.000000
0.403846 0.205128 0.000000
0.415094 0.205128 0.000000
0.425926 0.205128 0.000000
0.436364 0.205128 0.000000
0.446429 0.205128 0.000000
0.456140 0.205128 0.000000
0.465517 0.205128 0.000000
0.474576 0.205128 0.000000
0.483333 0.205128 0.000000
0.491803 0.205128 0.000000
0.500000 0.205128 0.000000
0.000000 0.225000 0.000000
0.031250 0.225000 0.000000
0.060606 0.225000 0.000000
0.088235 0.225000 0.000000
0.114286 0.225000 0.000000
0.138889 0.225000 0.000000
0.162162 0.225000 0.000000
0.184211 0.225000 0.000000
0.205128 0.225000 0.000000
0.225000 0.225000 0.000000
0.243902 0.225000 0.000000
0.261905 0.225000 0.000000
0.279070 0.225000 0.000000
0.295455 0.225000 0.000000
0.311111 0.225000 0.000000
0.326087 0.225000 0.000000
0.340426 0.225000 0.000000
0.354167 0.225000 0.000000
0.367347 0.225000 0.000000
0.380000 0.225000 0.000000
0.392157 0.225000 0.000000
0.403846 0.225000 0.000000
0.415094 0.225000 0.000000
0.425926 0.225000 0.000000
0.436364 0.225000 0.000000
0.446429 0.225000 0.000000
0.456140 0.225000 0.000000
0.465517 0.225000 0.000000
0.474576 0.225000 0.000000
0.483333 0.225000 0.000000
0.491803 0.225000 0.000000
0.500000 0.225000 0.000000
0.000000 0.243902 0.000000
0.031250 0.243902 0.000000
0.060606 0.243902 0.000000
0.088235 0.243902 0.000000
0.114286 0.243902 0.000000
0.138889 0.243902 0.000000
0.162162 0.243902 0.000000
0.184211 0.243902 0.000000
0.205128 0.243902 0.000000
0.225000 0.243902 0.000000
0.243902 0.243902 0.000000
0.261905 0.243902 0.000000
0.279070 0.243902 0.000000
0.295455 0.243902 0.000000
0.311111 0.243902 0.000000
0.326087 0.243902 0.000000
0.340426 0.243902 0.000000
0.354167 0.243902 0.000000
0.367347 0.243902 0.000000
0.380000 0.243902 0.000000
0.392157 0.243902 0.000000
0.403846 0.243902 0.000000
0.415094 0.243902 0.000000
0.425926 0.243902 0.000000
0.436364 0.243902 0.000000
0.446429 0.243902 0.000000
0.456140 0.243902 0.000000
0.465517 0.243902 0.000000
0.474576 0.243902 0.000000
0.483333 0.243902 0.000000
0.491803 0.243902 0.000000
0.500000 0.243902 0.000000
0.000000 0.261905 0.000000
0.031250 0.261905 0.000000
0.060606 0.261905 0.000000
0.088235 0.261905 0.000000
0.114286 0.261905 0.000000
0.138889 0.261905 0.000000
0.162162 0.261905 0.000000
0.184211 0.261905 0.000000
0.205128 0.261905 0.000000
0.225000 0.261905 0.000000
0.243902 0.261905 0.000000
0.261905 0.261905 0.000000
0.279070 0.261905 0.000000
0.295455 0.261905 0.000000
0.311111 0.261905 0.000000
0.326087 0.261905 0.000000
0.340426 0.261905 0.000000
0.354167 0.261905 0.000000
0.367347 0.261905 0.000000
0.380000 0.261905 0.000000
0.392157 0.261905 0.000000
0.403846 0.261905 0.000000
0.415094 0.261905 0.000000
0.425926 0.261905 0.000000
0.436364 0.261905 0.000000
0.446429 0.261905 0.000000
0.456140 0.261905 0.000000
0.465517 0.261905 0.000000
0.474576 0.261905 0.000000
0.483333 0.261905 0.000000
0.491803 0.261905 0.000000
0.500000 0.261905 0.000000
0.000000 0.279070 0.000000
0.031250 0.279070 0.000000
0.060606 0.279070 0.000000
0.088235 0.279070 0.000000
0.114286 0.279070 0.000000
0.138889 0.279070 0.000000
0.162162 0.279070 0.000000
0.184211 0.279070 0.000000
0.205128 0.279070 0.000000
0.225000 0.279070 0.000000
0.243902 0.279070 0.000000
0.261905 0.279070 0.000000
0.279070 0.279070 0.000000
0.295455 0.279070 0.000000
0.311111 0.279070 0.000000
0.326087 0.279070 0.000000
0.340426 0.279070 0.000000
0.354167 0.279070 0.000000
0.367347 0.279070 0.000000
0.380000 0.279070 0.000000
0.392157 0.279070 0.000000
0.403846 0.279070 0.000000
0.415094 0.279070 0.000000
0.425926 0.279070 0.000000
0.436364 0.279070 0.000000
0.446429 0.279070 0.000000
0.456140 0.279070 0.000000
0.465517 0.279070 0.000000
0.474576 0.279070 0.000000
0.483333 0.279070 0.000000
0.491803 0.279070 0.000000
0.500000 0.279070 0.000000
0.000000 0.295455 0.000000
0.031250 0.295455 0.000000
0.060606 0.295455 0.000000
0.088235 0.295455 0.000000
0.114286 0.295455 0.000000
0.138889 0.295455 0.000000
0.162162 0.295455 0.000000
0.184211 0.295455 0.000000
0.205128 0.295455 0.000000
0.225000 0.295455 0.000000
0.243902 0.295455 0.000000
0.261905 0.295455 0.000000
0.279070 0.295455 0.000000
0.295455 0.295455 0.000000
0.311111 0.295455 0.000000
0.326087 0.295455 0.000000
0.340426 0.295455 0.000000
0.354167 0.295455 0.000000
0.367347 0.295455 0.000000
0.380000 0.295455 0.000000
0.392157 0.295455 0.000000
0.403846 0.295455 0.000000
0.415094 0.295455 0.000000
0.425926 0.295455 0.000000
0.436364 0.295455 0.000000
0.446429 0.295455 0.000000
0.456140 0.295455 0.000000
0.465517 0.295455 0.000000
0.474576 0.295455 0.000000
0.483333 0.295455 0.000000
0.491803 0.295455 0.000000
0.500000 0.295455 0.000000
0.000000 0.311111 0.000000
0.031250 0.311111 0.000000
0.060606 0.311111 0.000000
0.088235 0.311111 0.000000
0.114286 0.311111 0.000000
0.138889 0.311111 0.000000
0.162162 0.311111 0.000000
0.184211 0.311111 0.000000
0.205128 0.311111 0.000000
0.225000 0.311111 0.000000
0.243902 0.311111 0.000000
0.261905 0.311111 0.000000
0.279070 0.311111 0.000000
0.295455 0.311111 0.000000
0.311111 0.311111 0.000000
0.326087 0.311111 0.000000
0.340426 0.311111 0.000000
0.354167 0.311111 0.000000
0.367347 0.311111 0.000000
0.380000 0.311111 0.000000
0.392157 0.311111 0.000000
0.403846 0.311111 0.000000
0.415094 0.311111 0.000000
0.425926 0.311111 0.000000
0.436364 0.311111 0.000000
0.446429 0.311111 0.000000
0.456140 0.311111 0.000000
0.465517 0.311111 0.000000
0.474576 0.311111 0.000000
0.483333 0.311111 0.000000
0.491803 0.311111 0.000000
0.500000 0.311111 0.000000
0.000000 0.326087 0.000000
0.031250 0.326087 0.000000
0.060606 0.326087 0.000000
0.088235 0.326087 0.000000
0.114286 0.326087 0.000000
0.138889 0.326087 0.000000
0.162162 0.326087 0.000000
0.184211 0.326087 0.000000
0.205128 0.326087 0.000000
0.225000 0.326087 0.000000
0.243902 0.326087 0.000000
0.261905 0.326087 0.000000
0.279070 0.326087 0.000000
0.295455 0.326087 0.000000
0.311111 0.326087 0.000000
0.326087 0.326087 0.000000
0.340426 0.326087 0.000000
0.354167 0.326087 0.000000
0.367347 0.326087 0.000000
0.380000 0.326087 0.000000
0.392157 0.326087 0.000000
0.403846 0.326087 0.000000
0.415094 0.326087 0.000000
0.425926 0.326087 0.000000
0.436364 0.326087 0.000000
0.446429 0.326087 0.000000
0.456140 0.326087 0.000000
0.465517 0.326087 0.000000
0.474576 0.326087 0.000000
0.483333 0.326087 0.000000
0.491803 0.326087 0.000000
0.500000 0.326087 0.000000
0.000000 0.340426 0.000000
0.031250 0.340426 0.000000
0.060606 0.340426 0.000000
0.088235 0.340426 0.000000
0.114286 0.340426 0.000000
0.138889 0.340426 0.000000
0.162162 0.340426 0.000000
0.184211 0.340426 0.000000
0.205128 0.340426 0.000000
0.225000 0.340426 0.000000
0.243902 0.340426 0.000000
0.261905 0.340426 0.000000
0.279070 0.340426 0.000000
0.295455 0.340426 0.000000
0.311111 0.340426 0.000000
0.326087 0.340426 0.000000
0.340426 0.340426 0.000000
0.354167 0.340426 0.000000
0.367347 0.340426 0.000000
0.380000 0.340426 0.000000
0.392157 0.340426 0.000000
0.403846 0.340426 0.000000
0.415094 0.340426 0.000000
0.425926 0.340426 0.000000
0.436364 0.340426 0.000000
0.446429 0.340426 0.000000
0.456140 0.340426 0.000000
0.465517 0.340426 0.000000
0.474576 0.340426 0.000000
0.483333 0.340426 0.000000
0.491803 0.340426 0.000000
0.500000 0.340426 0.000000
0.000000 0.354167 0.000000
0.031250 0.354167 0.000000
0.060606 0.354167 0.000000
0.088235 0.354167 0.000000
0.114286 0.354167 0.000000
0.138889 0.354167 0.000000
0.162162 0.354167 0.000000
0.184211 0.354167 0.000000
0.205128 0.354167 0.000000
0.225000 0.354167 0.000000
0.243902 0.354167 0.000000
0.261905 0.354167 0.000000
0.279070 0.354167 0.000000
0.295455 0.354167 0.000000
0.311111 0.354167 0.000000
0.326087 0.354167 0.000000
0.340426 0.354167 0.000000
0.354167 0.354167 0.000000
0.367347 0.354167 0.000000
0.380000 0.354167 0.000000
0.392157 0.354167 0.000000
0.403846 0.354167 0.000000
0.415094 0.354167 0.000000
0.425926 0.354167 0.000000
0.436364 0.354167 0.000000
0.446429 0.354167 0.000000
0.456140 0.354167 0.000000
0.465517 0.354167 0.000000
0.474576 0.354167 0.000000
0.483333 0.354167 0.000000
0.491803 0.354167 0.000000
0.500000 0.354167 0.000000
0.000000 0.367347 0.000000
0.031250 0.367347 0.000000
0.060606 0.367347 0.000000
0.088235 0.367347 0.000000
0.114286 0.367347 0.000000
0.138889 0.367347 0.000000
0.162162 0.367347 0.000000
0.184211 0.367347 0.000000
0.205128 0.367347 0.000000
0.225000 0.367347 0.000000
0.243902 0.367347 0.000000
0.261905 0.367347 0.000000
0.279070 0.367347 0.000000
0.295455 0.367347 0.000000
0.311111 0.367347 0.000000
0.326087 0.367347 0.000000
0.340426 0.367347 0.000000
0.354167 0.367347 0.000000
0.367347 0.367347 0.000000
0.380000 0.367347 0.000000
0.392157 0.367347 0.000000
0.403846 0.367347 0.000000
0.415094 0.367347 0.000000
0.425926 0.367347 0.000000
0.436364 0.367347 0.000000
0.446429 0.367347 0.000000
0.456140 0.367347 0.000000
0.465517 0.367347 0.000000
0.474576 0.367347 0.000000
0.483333 0.367347 0.000000
0.491803 0.367347 0.000000
0.500000 0.367347 0.000000
0.000000 0.380000 0.000000
0.031250 0.380000 0.000000
0.060606 0.380000 0.000000
0.088235 0.380000 0.000000
0.114286 0.380000 0.000000
0.138889 0.380000 0.000000
0.162162 0.380000 0.000000
0.184211 0.380000 0.000000
0.205128 0.380000 0.000000
0.225000 0.380000 0.000000
0.243902 0.380000 0.000000
0.261905 0.380000 0.000000
0.279070 0.380000 0.000000
0.295455 0.380000 0.000000
0.311111 0.380000 0.000000
0.326087 0.380000 0.000000
0.340426 0.380000 0.000000
0.354167 0.380000 0.000000
0.367347 0.380000 0.000000
0.380000 0.380000 0.000000
0.392157 0.380000 0.000000
0.403846 0.380000 0.000000
0.415094 0.380000 0.000000
0.425926 0.380000 0.000000
0.436364 0.380000 0.000000
0.446429 0.380000 0.000000
0.456140 0.380000 0.000000
0.465517 0.380000 0.000000
0.474576 0.380000 0.000000
0.483333 0.380000 0.000000
0.491803 0.380000 0.000000
0.500000 0.380000 0.000000
0.000000 0.392157 0.000000
0.031250 0.392157 0.000000
0.060606 0.392157 0.000000
0.088235 0.392157 0.000000
0.114286 0.392157 0.000000
0.138889 0.392157 0.000000
0.162162 0.392157 0.000000
0.184211 0.392157 0.000000
0.205128 0.392157 0.000000
0.225000 0.392157 0.000000
0.243902 0.392157 0.000000
0.261905 0.392157 0.000000
0.279070 0.392157 0.000000
0.295455 0.392157 0.000000
0.311111 0.392157 0.000000
0.326087 0.392157 0.000000
0.340426 0.392157 0.000000
0.354167 0.392157 0.000000
0.367347 0.392157 0.000000
0.380000 0.392157 0.000000
0.392157 0.392157 0.000000
0.403846 0.392157 0.000000
0.415094 0.392157 0.000000
0.425926 0.392157 0.000000
0.436364 0.392157 0.000000
0.446429 0.392157 0.000000
0.456140 0.392157 0.000000
0.465517 0.392157 0.000000
0.474576 0.392157 0.000000
0.483333 0.392157 0.000000
0.491803 0.392157 0.000000
0.500000 0.392157 0.000000
0.000000 0.403846 0.000000
0.031250 0.403846 0.000000
0.060606 0.403846 0.000000
0.088235 0.403846 0.000000
0.114286 0.403846 0.000000
0.138889 0.403846 0.000000
0.162162 0.403846 0.000000
0.184211 0.403846 0.000000
0.205128 0.403846 0.000000
0.225000 0.403846 0.000000
0.243902 0.403846 0.000000
0.261905 0.403846 0.000000
0.279070 0.403846 0.000000
0.295455 0.403846 0.000000
0.311111 0.403846 0.000000
0.326087 0.403846 0.000000
0.340426 0.403846 0.000000
0.354167 0.403846 0.000000
0.367347 0.403846 0.000000
0.380000 0.403846 0.000000
0.392157 0.403846 0.000000
0.403846 0.403846 0.000000
0.415094 0.403846 0.000000
0.425926 0.403846 0.000000
0.436364 0.403846 0.000000
0.446429 0.403846 0.000000
0.456140 0.403846 0.000000
0.465517 0.403846 0.000000
0.474576 0.403846 0.000000
0.483333 0.403846 0.000000
0.491803 0.403846 0.000000
0.500000 0.403846 0.000000
0.000000 0.415094 0.000000
0.031250 0.415094 0.000000
0.060606 0.415094 0.000000
0.088235 0.415094 0.000000
0.114286 0.415094 0.000000
0.138889 0.415094 0.000000
0.162162 0.415094 0.000000
0.184211 0.415094 0.000000
0.205128 0.415094 0.000000
0.225000 0.415094 0.000000
0.243902 0.415094 0.000000
0.261905 0.415094 0.000000
0.279070 0.415094 0.000000
0.295455 0.415094 0.000000
0.311111 0.415094 0.000000
0.326087 0.415094 0.000000
0.340426 0.415094 0.000000
0.354167 0.415094 0.000000
0.367347 0.415094 0.000000
0.380000 0.415094 0.000000
0.392157 0.415094 0.000000
0.403846 0.415094 0.000000
0.415094 0.415094 0.000000
0.425926 0.415094 0.000000
0.436364 0.415094 0.000000
0.446429 0.415094 0.000000
0.456140 0.415094 0.000000
0.465517 0.415094 0.000000
0.474576 0.415094 0.000000
0.483333 0.415094 0.000000
0.491803 0.415094 0.000000
0.500000 0.415094 0.000000
0.000000 0.425926 0.000000
0.031250 0.425926 0.000000
0.060606 0.425926 0.000000
0.088235 0.425926 0.000000
0.114286 0.425926 0.000000
0.138889 0.425926 0.000000
0.162162 0.425926 0.000000
0.184211 0.425926 0.000000
0.205128 0.425926 0.000000
0.225000 0.425926 0.000000
0.243902 0.425926 0.000000
0.261905 0.425926 0.000000
0.279070 0.425926 0.000000
0.295455 0.425926 0.000000
0.311111 0.425926 0.000000
0.326087 0.425926 0.000000
0.340426 0.425926 0.000000
0.354167 0.425926 0.000000
0.367347 0.425926 0.000000
0.380000 0.425926 0.000000
0.392157 0.425926 0.000000
0.403846 0.425926 0.000000
0.415094 0.425926 0.000000
0.425926 0.425926 0.000000
0.436364 0.425926 0.000000
0.446429 0.425926 0.000000
0.456140 0.425926 0.000000
0.465517 0.425926 0.000000
0.474576 0.425926 0.000000
0.483333 0.425926 0.000000
0.491803 0.425926 0.000000
0.500000 0.425926 0.000000
0.000000 0.436364 0.000000
0.031250 0.436364 0.000000
0.060606 0.436364 0.000000
0.088235 0.436364 0.000000
0.114286 0.436364 0.000000
0.138889 0.436364 0.000000
0.162162 0.436364 0.000000
0.184211 0.436364 0.000000
0.205128 0.436364 0.000000
0.225000 0.436364 0.000000
0.243902 0.436364 0.000000
0.261905 0.436364 0.000000
0.279070 0.436364 0.000000
0.295455 0.436364 0.000000
0.311111 0.436364 0.000000
0.326087 0.436364 0.000000
0.340426 0.436364 0.000000
0.354167 0.436364 0.000000
0.367347 0.436364 0.000000
0.380000 0.436364 0.000000
0.392157 0.436364 0.000000
0.403846 0.436364 0.000000
0.415094 0.436364 0.000000
0.425926 0.436364 0.000000
0.436364 0.436364 0.000000
0.446429 0.436364 0.000000
0.456140 0.436364 0.000000
0.465517 0.436364 0.000000
0.474576 0.436364 0.000000
0.483333 0.436364 0.000000
0.491803 0.436364 0.000000
0.500000 0.436364 0.000000
0.000000 0.446429 0.000000
0.031250 0.446429 0.000000
0.060606 0.446429 0.000000
0.088235 0.446429 0.000000
0.114286 0.446429 0.000000
0.138889 0.446429 0.000000
0.162162 0.446429 0.000000
0.184211 0.446429 0.000000
0.205128 0.446429 0.000000
0.225000 0.446429 0.000000
0.243902 0.446429 0.000000
0.261905 0.446429 0.000000
0.279070 0.446429 0.000000
0.295455 0.446429 0.000000
0.311111 0.446429 0.000000
0.326087 0.446429 0.000000
0.340426 0.446429 0.000000
0.354167 0.446429 0.000000
0.367347 0.446429 0.000000
0.380000 0.446429 0.000000
0.392157 0.446429 0.000000
0.403846 0.446429 0.000000
0.415094 0.446429 0.000000
0.425926 0.446429 0.000000
0.436364 0.446429 0.000000
0.446429 0.446429 0.000000
0.456140 0.446429 0.000000
0.465517 0.446429 0.000000
0.474576 0.446429 0.000000
0.483333 0.446429 0.000000
0.491803 0.446429 0.000000
0.500000 0.446429 0.000000
0.000000 0.456140 0.000000
0.031250 0.456140 0.000000
0.060606 0.456140 0.000000
0.088235 0.456140 0.000000
0.114286 0.456140 0.000000
0.138889 0.456140 0.000000
0.162162 0.456140 0.000000
0.184211 0.456140 0.000000
0.205128 0.456140 0.000000
0.225000 0.456140 0.000000
0.243902 0.456140 0.000000
0.261905 0.456140 0.000000
0.279070 0.456140 0.000000
0.295455 0.456140 0.000000
0.311111 0.456140 0.000000
0.326087 0.456140 0.000000
0.340426 0.456140 0.000000
0.354167 0.456140 0.000000
0.367347 0.456140 0.000000
0.380000 0.456140 0.000000
0.392157 0.456140 0.000000
0.403846 0.456140 0.000000
0.415094 0.456140 0.000000
0.425926 0.456140 0.000000
0.436364 0.456140 0.000000
0.446429 0.456140 0.000000
0.456140 0.456140 0.000000
0.465517 0.456140 0.000000
0.474576 0.456140 0.000000
0.483333 0.456140 0.000000
0.491803 0.456140 0.000000
0.500000 0.456140 0.000000
0.000000 0.465517 0.000000
0.031250 0.465517 0.000000
0.060606 0.465517 0.000000
0.088235 0.465517 0.000000
0.114286 0.465517 0.000000
0.138889 0.465517 0.000000
0.162162 0.465517 0.000000
0.184211 0.465517 0.000000
0.205128 0.465517 0.000000
0.225000 0.465517 0.000000
0.243902 0.465517 0.000000
0.261905 0.465517 0.000000
0.279070 0.465517 0.000000
0.295455 0.465517 0.000000
0.311111 0.465517 0.000000
0.326087 0.465517 0.000000
0.340426 0.465517 0.000000
0.354167 0.465517 0.000000
0.367347 0.465517 0.000000
0.380000 0.465517 0.000000
0.392157 0.465517 0.000000
