Packages/3ds Max 2027/ColorManagement/ocio_configs/glTF_PBR_Neutral_Tone_Mapper/gltf_neutral_tonemap.cube
TITLE "glTF Neutral Tone Mapper"
LUT_3D_SIZE 8
DOMAIN_MIN 0.000000 0.000000 0.000000
DOMAIN_MAX 0.903226 0.903226 0.903226
0.000000 0.000000 0.000000
0.114286 0.000000 0.000000
0.205128 0.000000 0.000000
0.279070 0.000000 0.000000
0.340426 0.000000 0.000000
0.392157 0.000000 0.000000
0.436364 0.000000 0.000000
0.474576 0.000000 0.000000
0.000000 0.114286 0.000000
0.114286 0.114286 0.000000
0.205128 0.114286 0.000000
0.279070 0.114286 0.000000
0.340426 0.114286 0.000000
0.392157 0.114286 0.000000
0.436364 0.114286 0.000000
0.474576 0.114286 0.000000
0.000000 0.205128 0.000000
0.114286 0.205128 0.000000
0.205128 0.205128 0.000000
0.279070 0.205128 0.000000
0.340426 0.205128 0.000000
0.392157 0.205128 0.000000
0.436364 0.205128 0.000000
0.474576 0.205128 0.000000
0.000000 0.279070 0.000000
0.114286 0.279070 0.000000
0.205128 0.279070 0.000000
0.279070 0.279070 0.000000
0.340426 0.279070 0.000000
0.392157 0.279070 0.000000
0.436364 0.279070 0.000000
0.474576 0.279070 0.000000
0.000000 0.340426 0.000000
0.114286 0.340426 0.000000
0.205128 0.340426 0.000000
0.279070 0.340426 0.000000
0.340426 0.340426 0.000000
0.392157 0.340426 0.000000
0.436364 0.340426 0.000000
0.474576 0.340426 0.000000
0.000000 0.392157 0.000000
0.114286 0.392157 0.000000
0.205128 0.392157 0.000000
0.279070 0.392157 0.000000
0.340426 0.392157 0.000000
0.392157 0.392157 0.000000
0.436364 0.392157 0.000000
0.474576 0.392157 0.000000
0.000000 0.436364 0.000000
0.114286 0.436364 0.000000
0.205128 0.436364 0.000000
0.279070 0.436364 0.000000
0.340426 0.436364 0.000000
0.392157 0.436364 0.000000
0.436364 0.436364 0.000000
0.474576 0.436364 0.000000
0.000000 0.474576 0.000000
0.114286 0.474576 0.000000
0.205128 0.474576 0.000000
0.279070 0.474576 0.000000
0.340426 0.474576 0.000000
0.392157 0.474576 0.000000
0.436364 0.474576 0.000000
0.474576 0.474576 0.000000
0.000000 0.000000 0.114286
0.114286 0.000000 0.114286
0.205128 0.000000 0.114286
0.279070 0.000000 0.114286
0.340426 0.000000 0.114286
0.392157 0.000000 0.114286
0.436364 0.000000 0.114286
0.474576 0.000000 0.114286
0.000000 0.114286 0.114286
0.114286 0.114286 0.114286
0.205128 0.114286 0.114286
0.279070 0.114286 0.114286
0.340426 0.114286 0.114286
0.392157 0.114286 0.114286
0.436364 0.114286 0.114286
0.474576 0.114286 0.114286
0.000000 0.205128 0.114286
0.114286 0.205128 0.114286
0.205128 0.205128 0.114286
0.279070 0.205128 0.114286
0.340426 0.205128 0.114286
0.392157 0.205128 0.114286
0.436364 0.205128 0.114286
0.474576 0.205128 0.114286
0.000000 0.279070 0.114286
0.114286 0.279070 0.114286
0.205128 0.279070 0.114286
0.279070 0.279070 0.114286
0.340426 0.279070 0.114286
0.392157 0.279070 0.114286
0.436364 0.279070 0.114286
0.474576 0.279070 0.114286
0.000000 0.340426 0.114286
0.114286 0.340426 0.114286
0.205128 0.340426 0.114286
0.279070 0.340426 0.114286
0.340426 0.340426 0.114286
0.392157 0.340426 0.114286
0.436364 0.340426 0.114286
0.474576 0.340426 0.114286
0.000000 0.392157 0.114286
0.114286 0.392157 0.114286
0.205128 0.392157 0.114286
0.279070 0.392157 0.114286
0.340426 0.392157 0.114286
0.392157 0.392157 0.114286
0.436364 0.392157 0.114286
0.474576 0.392157 0.114286
0.000000 0.436364 0.114286
0.114286 0.436364 0.114286
0.205128 0.436364 0.114286
0.279070 0.436364 0.114286
0.340426 0.436364 0.114286
0.392157 0.436364 0.114286
0.436364 0.436364 0.114286
0.474576 0.436364 0.114286
0.000000 0.474576 0.114286
0.114286 0.474576 0.114286
0.205128 0.474576 0.114286
0.279070 0.474576 0.114286
0.340426 0.474576 0.114286
0.392157 0.474576 0.114286
0.436364 0.474576 0.114286
0.474576 0.474576 0.114286
0.000000 0.000000 0.205128
0.114286 0.000000 0.205128
0.205128 0.000000 0.205128
0.279070 0.000000 0.205128
0.340426 0.000000 0.205128
0.392157 0.000000 0.205128
0.436364 0.000000 0.205128
0.474576 0.000000 0.205128
0.000000 0.114286 0.205128
0.114286 0.114286 0.205128
0.205128 0.114286 0.205128
0.279070 0.114286 0.205128
0.340426 0.114286 0.205128
0.392157 0.114286 0.205128
0.436364 0.114286 0.205128
0.474576 0.114286 0.205128
0.000000 0.205128 0.205128
0.114286 0.205128 0.205128
0.205128 0.205128 0.205128
0.279070 0.205128 0.205128
0.340426 0.205128 0.205128
0.392157 0.205128 0.205128
0.436364 0.205128 0.205128
0.474576 0.205128 0.205128
0.000000 0.279070 0.205128
0.114286 0.279070 0.205128
0.205128 0.279070 0.205128
0.279070 0.279070 0.205128
0.340426 0.279070 0.205128
0.392157 0.279070 0.205128
0.436364 0.279070 0.205128
0.474576 0.279070 0.205128
0.000000 0.340426 0.205128
0.114286 0.340426 0.205128
0.205128 0.340426 0.205128
0.279070 0.340426 0.205128
0.340426 0.340426 0.205128
0.392157 0.340426 0.205128
0.436364 0.340426 0.205128
0.474576 0.340426 0.205128
0.000000 0.392157 0.205128
0.114286 0.392157 0.205128
0.205128 0.392157 0.205128
0.279070 0.392157 0.205128
0.340426 0.392157 0.205128
0.392157 0.392157 0.205128
0.436364 0.392157 0.205128
0.474576 0.392157 0.205128
0.000000 0.436364 0.205128
0.114286 0.436364 0.205128
0.205128 0.436364 0.205128
0.279070 0.436364 0.205128
0.340426 0.436364 0.205128
0.392157 0.436364 0.205128
0.436364 0.436364 0.205128
0.474576 0.436364 0.205128
0.000000 0.474576 0.205128
0.114286 0.474576 0.205128
0.205128 0.474576 0.205128
0.279070 0.474576 0.205128
0.340426 0.474576 0.205128
0.392157 0.474576 0.205128
0.436364 0.474576 0.205128
0.474576 0.474576 0.205128
0.000000 0.000000 0.279070
0.114286 0.000000 0.279070
0.205128 0.000000 0.279070
0.279070 0.000000 0.279070
0.340426 0.000000 0.279070
0.392157 0.000000 0.279070
0.436364 0.000000 0.279070
0.474576 0.000000 0.279070
0.000000 0.114286 0.279070
0.114286 0.114286 0.279070
0.205128 0.114286 0.279070
0.279070 0.114286 0.279070
0.340426 0.114286 0.279070
0.392157 0.114286 0.279070
0.436364 0.114286 0.279070
0.474576 0.114286 0.279070
0.000000 0.205128 0.279070
0.114286 0.205128 0.279070
0.205128 0.205128 0.279070
0.279070 0.205128 0.279070
0.340426 0.205128 0.279070
0.392157 0.205128 0.279070
0.436364 0.205128 0.279070
0.474576 0.205128 0.279070
0.000000 0.279070 0.279070
0.114286 0.279070 0.279070
0.205128 0.279070 0.279070
0.279070 0.279070 0.279070
0.340426 0.279070 0.279070
0.392157 0.279070 0.279070
0.436364 0.279070 0.279070
0.474576 0.279070 0.279070
0.000000 0.340426 0.279070
0.114286 0.340426 0.279070
0.205128 0.340426 0.279070
0.279070 0.340426 0.279070
0.340426 0.340426 0.279070
0.392157 0.340426 0.279070
0.436364 0.340426 0.279070
0.474576 0.340426 0.279070
0.000000 0.392157 0.279070
0.114286 0.392157 0.279070
0.205128 0.392157 0.279070
0.279070 0.392157 0.279070
0.340426 0.392157 0.279070
0.392157 0.392157 0.279070
0.436364 0.392157 0.279070
0.474576 0.392157 0.279070
0.000000 0.436364 0.279070
0.114286 0.436364 0.279070
0.205128 0.436364 0.279070
0.279070 0.436364 0.279070
0.340426 0.436364 0.279070
0.392157 0.436364 0.279070
0.436364 0.436364 0.279070
0.474576 0.436364 0.279070
0.000000 0.474576 0.279070
0.114286 0.474576 0.279070
0.205128 0.474576 0.279070
0.279070 0.474576 0.279070
0.340426 0.474576 0.279070
0.392157 0.474576 0.279070
0.436364 0.474576 0.279070
0.474576 0.474576 0.279070
0.000000 0.000000 0.340426
0.114286 0.000000 0.340426
0.205128 0.000000 0.340426
0.279070 0.000000 0.340426
0.340426 0.000000 0.340426
0.392157 0.000000 0.340426
0.436364 0.000000 0.340426
0.474576 0.000000 0.340426
0.000000 0.114286 0.340426
0.114286 0.114286 0.340426
0.205128 0.114286 0.340426
0.279070 0.114286 0.340426
0.340426 0.114286 0.340426
0.392157 0.114286 0.340426
0.436364 0.114286 0.340426
0.474576 0.114286 0.340426
0.000000 0.205128 0.340426
0.114286 0.205128 0.340426
0.205128 0.205128 0.340426
0.279070 0.205128 0.340426
0.340426 0.205128 0.340426
0.392157 0.205128 0.340426
0.436364 0.205128 0.340426
0.474576 0.205128 0.340426
0.000000 0.279070 0.340426
0.114286 0.279070 0.340426
0.205128 0.279070 0.340426
0.279070 0.279070 0.340426
0.340426 0.279070 0.340426
0.392157 0.279070 0.340426
0.436364 0.279070 0.340426
0.474576 0.279070 0.340426
0.000000 0.340426 0.340426
0.114286 0.340426 0.340426
0.205128 0.340426 0.340426
0.279070 0.340426 0.340426
0.340426 0.340426 0.340426
0.392157 0.340426 0.340426
0.436364 0.340426 0.340426
0.474576 0.340426 0.340426
0.000000 0.392157 0.340426
0.114286 0.392157 0.340426
0.205128 0.392157 0.340426
0.279070 0.392157 0.340426
0.340426 0.392157 0.340426
0.392157 0.392157 0.340426
0.436364 0.392157 0.340426
0.474576 0.392157 0.340426
0.000000 0.436364 0.340426
0.114286 0.436364 0.340426
0.205128 0.436364 0.340426
0.279070 0.436364 0.340426
0.340426 0.436364 0.340426
0.392157 0.436364 0.340426
0.436364 0.436364 0.340426
0.474576 0.436364 0.340426
0.000000 0.474576 0.340426
0.114286 0.474576 0.340426
0.205128 0.474576 0.340426
0.279070 0.474576 0.340426
0.340426 0.474576 0.340426
0.392157 0.474576 0.340426
0.436364 0.474576 0.340426
0.474576 0.474576 0.340426
0.000000 0.000000 0.392157
0.114286 0.000000 0.392157
0.205128 0.000000 0.392157
0.279070 0.000000 0.392157
0.340426 0.000000 0.392157
0.392157 0.000000 0.392157
0.436364 0.000000 0.392157
0.474576 0.000000 0.392157
0.000000 0.114286 0.392157
0.114286 0.114286 0.392157
0.205128 0.114286 0.392157
0.279070 0.114286 0.392157
0.340426 0.114286 0.392157
0.392157 0.114286 0.392157
0.436364 0.114286 0.392157
0.474576 0.114286 0.392157
0.000000 0.205128 0.392157
0.114286 0.205128 0.392157
0.205128 0.205128 0.392157
0.279070 0.205128 0.392157
0.340426 0.205128 0.392157
0.392157 0.205128 0.392157
0.436364 0.205128 0.392157
0.474576 0.205128 0.392157
0.000000 0.279070 0.392157
0.114286 0.279070 0.392157
0.205128 0.279070 0.392157
0.279070 0.279070 0.392157
0.340426 0.279070 0.392157
0.392157 0.279070 0.392157
0.436364 0.279070 0.392157
0.474576 0.279070 0.392157
0.000000 0.340426 0.392157
0.114286 0.340426 0.392157
0.205128 0.340426 0.392157
0.279070 0.340426 0.392157
0.340426 0.340426 0.392157
0.392157 0.340426 0.392157
0.436364 0.340426 0.392157
0.474576 0.340426 0.392157
0.000000 0.392157 0.392157
0.114286 0.392157 0.392157
0.205128 0.392157 0.392157
0.279070 0.392157 0.392157
0.340426 0.392157 0.392157
0.392157 0.392157 0.392157
0.436364 0.392157 0.392157
0.474576 0.392157 0.392157
0.000000 0.436364 0.392157
0.114286 0.436364 0.392157
0.205128 0.436364 0.392157
0.279070 0.436364 0.392157
0.340426 0.436364 0.392157
0.392157 0.436364 0.392157
0.436364 0.436364 0.392157
0.474576 0.436364 0.392157
0.000000 0.474576 0.392157
0.114286 0.474576 0.392157
0.205128 0.474576 0.392157
0.279070 0.474576 0.392157
0.340426 0.474576 0.392157
0.392157 0.474576 0.392157
0.436364 0.474576 0.392157
0.474576 0.474576 0.392157
0.000000 0.000000 0.436364
0.114286 0.000000 0.436364
0.205128 0.000000 0.436364
0.279070 0.000000 0.436364
0.340426 0.000000 0.436364
0.392157 0.000000 0.436364
0.436364 0.000000 0.436364
0.474576 0.000000 0.436364
0.000000 0.114286 0.436364
0.114286 0.114286 0.436364
0.205128 0.114286 0.436364
0.279070 0.114286 0.436364
0.340426 0.114286 0.436364
0.392157 0.114286 0.436364
0.436364 0.114286 0.436364
0.474576 0.114286 0.436364
0.000000 0.205128 0.436364
0.114286 0.205128 0.436364
0.205128 0.205128 0.436364
0.279070 0.205128 0.436364
0.340426 0.205128 0.436364
0.392157 0.205128 0.436364
0.436364 0.205128 0.436364
0.474576 0.205128 0.436364
0.000000 0.279070 0.436364
0.114286 0.279070 0.436364
0.205128 0.279070 0.436364
0.279070 0.279070 0.436364
0.340426 0.279070 0.436364
0.392157 0.279070 0.436364
0.436364 0.279070 0.436364
0.474576 0.279070 0.436364
0.000000 0.340426 0.436364
0.114286 0.340426 0.436364
0.205128 0.340426 0.436364
0.279070 0.340426 0.436364
0.340426 0.340426 0.436364
0.392157 0.340426 0.436364
0.436364 0.340426 0.436364
0.474576 0.340426 0.436364
0.000000 0.392157 0.436364
0.114286 0.392157 0.436364
0.205128 0.392157 0.436364
0.279070 0.392157 0.436364
0.340426 0.392157 0.436364
0.392157 0.392157 0.436364
0.436364 0.392157 0.436364
0.474576 0.392157 0.436364
0.000000 0.436364 0.436364
0.114286 0.436364 0.436364
0.205128 0.436364 0.436364
0.279070 0.436364 0.436364
0.340426 0.436364 0.436364
0.392157 0.436364 0.436364
0.436364 0.436364 0.436364
0.474576 0.436364 0.436364
0.000000 0.474576 0.436364
0.114286 0.474576 0.436364
0.205128 0.474576 0.436364
0.279070 0.474576 0.436364
0.340426 0.474576 0.436364
0.392157 0.474576 0.436364
0.436364 0.474576 0.436364
0.474576 0.474576 0.436364
0.000000 0.000000 0.474576
0.114286 0.000000 0.474576
0.205128 0.000000 0.474576
0.279070 0.000000 0.474576
0.340426 0.000000 0.474576
0.392157 0.000000 0.474576
0.436364 0.000000 0.474576
0.474576 0.000000 0.474576
0.000000 0.114286 0.474576
0.114286 0.114286 0.474576
0.205128 0.114286 0.474576
0.279070 0.114286 0.474576
0.340426 0.114286 0.474576
0.392157 0.114286 0.474576
0.436364 0.114286 0.474576
0.474576 0.114286 0.474576
0.000000 0.205128 0.474576
0.114286 0.205128 0.474576
0.205128 0.205128 0.474576
0.279070 0.205128 0.474576
0.340426 0.205128 0.474576
0.392157 0.205128 0.474576
0.436364 0.205128 0.474576
0.474576 0.205128 0.474576
0.000000 0.279070 0.474576
0.114286 0.279070 0.474576
0.205128 0.279070 0.474576
0.279070 0.279070 0.474576
0.340426 0.279070 0.474576
0.392157 0.279070 0.474576
0.436364 0.279070 0.474576
0.474576 0.279070 0.474576
0.000000 0.340426 0.474576
0.114286 0.340426 0.474576
0.205128 0.340426 0.474576
0.279070 0.340426 0.474576
0.340426 0.340426 0.474576
0.392157 0.340426 0.474576
0.436364 0.340426 0.474576
0.474576 0.340426 0.474576
0.000000 0.392157 0.474576
0.114286 0.392157 0.474576
0.205128 0.392157 0.474576
0.279070 0.392157 0.474576
0.340426 0.392157 0.474576
0.392157 0.392157 0.474576
0.436364 0.392157 0.474576
0.474576 0.392157 0.474576
0.000000 0.436364 0.474576
0.114286 0.436364 0.474576
0.205128 0.436364 0.474576
0.279070 0.436364 0.474576
0.340426 0.436364 0.474576
0.392157 0.436364 0.474576
0.436364 0.436364 0.474576
0.474576 0.436364 0.474576
0.000000 0.474576 0.474576
0.114286 0.474576 0.474576
0.205128 0.474576 0.474576
0.279070 0.474576 0.474576
0.340426 0.474576 0.474576
0.392157 0.474576 0.474576
0.436364 0.474576 0.474576
0.474576 0.474576 0.474576
