Packages/3ds Max 2027/ColorManagement/ocio_configs/glTF_PBR_Neutral_Tone_Mapper/gltf_neutral_tonemap.cube
TITLE "glTF Neutral Tone Mapper"
LUT_3D_SIZE 5
DOMAIN_MIN 0.000000 0.000000 0.000000
DOMAIN_MAX 0.903226 0.903226 0.903226
0.000000 0.000000 0.000000
0.184211 0.000000 0.000000
0.311111 0.000000 0.000000
0.403846 0.000000 0.000000
0.474576 0.000000 0.000000
0.000000 0.184211 0.000000
0.184211 0.184211 0.000000
0.311111 0.184211 0.000000
0.403846 0.184211 0.000000
0.474576 0.184211 0.000000
0.000000 0.311111 0.000000
0.184211 0.311111 0.000000
0.311111 0.311111 0.000000
0.403846 0.311111 0.000000
0.474576 0.311111 0.000000
0.000000 0.403846 0.000000
0.184211 0.403846 0.000000
0.311111 0.403846 0.000000
0.403846 0.403846 0.000000
0.474576 0.403846 0.000000
0.000000 0.474576 0.000000
0.184211 0.474576 0.000000
0.311111 0.474576 0.000000
0.403846 0.474576 0.000000
0.474576 0.474576 0.000000
0.000000 0.000000 0.184211
0.184211 0.000000 0.184211
0.311111 0.000000 0.184211
0.403846 0.000000 0.184211
0.474576 0.000000 0.184211
0.000000 0.184211 0.184211
0.184211 0.184211 0.184211
0.311111 0.184211 0.184211
0.403846 0.184211 0.184211
0.474576 0.184211 0.184211
0.000000 0.311111 0.184211
0.184211 0.311111 0.184211
0.311111 0.311111 0.184211
0.403846 0.311111 0.184211
0.474576 0.311111 0.184211
0.000000 0.403846 0.184211
0.184211 0.403846 0.184211
0.311111 0.403846 0.184211
0.403846 0.403846 0.184211
0.474576 0.403846 0.184211
0.000000 0.474576 0.184211
0.184211 0.474576 0.184211
0.311111 0.474576 0.184211
0.403846 0.474576 0.184211
0.474576 0.474576 0.184211
0.000000 0.000000 0.311111
0.184211 0.000000 0.311111
0.311111 0.000000 0.311111
0.403846 0.000000 0.311111
0.474576 0.000000 0.311111
0.000000 0.184211 0.311111
0.184211 0.184211 0.311111
0.311111 0.184211 0.311111
0.403846 0.184211 0.311111
0.474576 0.184211 0.311111
0.000000 0.311111 0.311111
0.184211 0.311111 0.311111
0.311111 0.311111 0.311111
0.403846 0.311111 0.311111
0.474576 0.311111 0.311111
0.000000 0.403846 0.311111
0.184211 0.403846 0.311111
0.311111 0.403846 0.311111
0.403846 0.403846 0.311111
0.474576 0.403846 0.311111
0.000000 0.474576 0.311111
0.184211 0.474576 0.311111
0.311111 0.474576 0.311111
0.403846 0.474576 0.311111
0.474576 0.474576 0.311111
0.000000 0.000000 0.403846
0.184211 0.000000 0.403846
0.311111 0.000000 0.403846
0.403846 0.000000 0.403846
0.474576 0.000000 0.403846
0.000000 0.184211 0.403846
0.184211 0.184211 0.403846
0.311111 0.184211 0.403846
0.403846 0.184211 0.403846
0.474576 0.184211 0.403846
0.000000 0.311111 0.403846
0.184211 0.311111 0.403846
0.311111 0.311111 0.403846
0.403846 0.311111 0.403846
0.474576 0.311111 0.403846
0.000000 0.403846 0.403846
0.184211 0.403846 0.403846
0.311111 0.403846 0.403846
0.403846 0.403846 0.403846
0.474576 0.403846 0.403846
0.000000 0.474576 0.403846
0.184211 0.474576 0.403846
0.311111 0.474576 0.403846
0.403846 0.474576 0.403846
0.474576 0.474576 0.403846
0.000000 0.000000 0.474576
0.184211 0.000000 0.474576
0.311111 0.000000 0.474576
0.403846 0.000000 0.474576
0.474576 0.000000 0.474576
0.000000 0.184211 0.474576
0.184211 0.184211 0.474576
0.311111 0.184211 0.474576
0.403846 0.184211 0.474576
0.474576 0.184211 0.474576
0.000000 0.311111 0.474576
0.184211 0.311111 0.474576
0.311111 0.311111 0.474576
0.403846 0.311111 0.474576
0.474576 0.311111 0.474576
0.000000 0.403846 0.474576
0.184211 0.403846 0.474576
0.311111 0.403846 0.474576
0.403846 0.403846 0.474576
0.474576 0.403846 0.474576
0.000000 0.474576 0.474576
0.184211 0.474576 0.474576
0.311111 0.474576 0.474576
0.403846 0.474576 0.474576
0.474576 0.474576 0.474576
